X:1
T:Title
%%score { ( 1 3 5 ) | ( 2 4 ) }
L:1/8
M:4/4
K:Ab
V:1 treble nm="Grand Piano"
V:3 treble 
V:5 treble 
V:2 bass 
V:4 bass 
V:1
 z4 z2[Q:1/4=100] E>E | [CA]>[CA] [CA]>[DB] [Ec]2 [DB]>[CA] |[M:3/4] B>A A>F [CE]2 | %3
[M:1/4] [EA]>B |[M:4/4] c>c c>d e>A d>c | B6 e>d | c>c c>d e2 d>c | %7
 [FB]>[FB] [FB]>[Fc] [Fd]2 [Fc]>[FB] | z4 z2 B2 |[M:3/4] [CA]6 |[M:1/4] (3EFG | %11
[M:4/4] z2 E,2 A>G F>G | [EA]2 B2 c2 [EA]2 | d4 z4 | [EB]2 B2 B2 (3EFG | z2 E,2 A>G F>G | %16
 [EA]2 B2 c2 d2 | [Ae]>[EAc] [DFA]>[FBd] [EAc]2 [DGB]2 |[M:3/4] [A,CEA]6 |] %19
V:2
 z4 z2 E,>E, | [A,,E,]>[A,,A,] [A,,A,]>[A,,A,] [A,,A,]2 [A,,E,]>[A,,E,] | %2
[M:3/4] [D,F,D]>[D,F,D] [D,F,D]>[D,A,D] [A,,A,]2 |[M:1/4] [C,A,]>[E,G,E] | %4
[M:4/4] [A,E]>[A,E] [A,E]>[A,B,E] [A,CE]>[A,CE] [G,B,E]>[A,E] | [E,G,E]6 [E,G,E]>[G,B,E] | %6
 [A,E]>[A,E] [A,E]>[A,B,E] [A,CE]2 [G,B,E]>[A,E] | %7
 [D,F,]>[D,F,] [D,B,]>[C,=A,] [B,,B,]2 [C,A,]>[D,B,] | %8
 [E,CE]>[E,CE] [E,B,E]>[E,CE] [E,A,E]2 .[E,F,D]2 |[M:3/4] [A,,A,]6 |[M:1/4] [E,G,D]2 | %11
[M:4/4] [A,,E,]2 z z/[K:treble] B/[K:bass] [B,,E,]2 [E,,E,]2 | [C,A,]2 [E,G,E]2 [A,E]2 [C,A,]2 | %13
 z4 E2 z2 | [B,,G,]2 [B,,B,]2 [E,B,]2 [E,G,D]2 | %15
 [A,,E,]2 z z/[K:treble] B/[K:bass] [B,,E,]2 [E,,E,]2 | [C,A,]2 [E,G,E]2 [A,E]2 [F,A,D]2 | %17
 [C,A,]>C, D,>B,, E,2 E,2 |[M:3/4] A,,6 |] %19
V:3
 x8 | x8 |[M:3/4] x6 |[M:1/4] x2 |[M:4/4] x8 | x8 | x8 | x8 | A>A G>A c2 z G, |[M:3/4] x6 | %10
[M:1/4] x2 |[M:4/4] [CA]4 D4 | x8 | z2 z z/ d/ c>B [CA]>[Ec] | x8 | [CA]4 D4 | x8 | x8 | %18
[M:3/4] x6 |] %19
V:4
 x8 | x8 |[M:3/4] x6 |[M:1/4] x2 |[M:4/4] x8 | x8 | x8 | x8 | x8 |[M:3/4] x6 |[M:1/4] x2 | %11
[M:4/4] z2 E,,2[K:treble][K:bass] z4 | x8 | [F,A,D]2 [G,B,]2 A,->[A,D] [A,,A,]2 | x8 | %15
 z2 E,,2[K:treble][K:bass] z4 | x8 | x8 |[M:3/4] x6 |] %19
V:5
 x8 | x8 |[M:3/4] x6 |[M:1/4] x2 |[M:4/4] x8 | x8 | x8 | x8 | x8 |[M:3/4] x6 |[M:1/4] x2 | %11
[M:4/4] x8 | x8 | z2 E2 z4 | x8 | x8 | x8 | x8 |[M:3/4] x6 |] %19

